src/assets/bg-forms/section_1-svg_1.svg

<svg width="138" height="194" viewBox="0 0 138 194" fill="none" xmlns="http://www.w3.org/2000/svg">
<g clip-path="url(#clip0_24_243)">
<path opacity="0.6" d="M56.3372 5.88712L8.92849 53.2129C1.09105 61.0366 1.09105 73.7214 8.9285 81.5452L56.3372 128.871C64.1746 136.695 76.8816 136.695 84.7191 128.871L132.128 81.5452C139.965 73.7215 139.965 61.0367 132.128 53.2129L84.7191 5.88712C76.8816 -1.93661 64.1746 -1.93661 56.3372 5.88712Z" fill="#6CEEC7"/>
<g opacity="0.9">
<path opacity="0.8" d="M44.664 150.385C43.4989 150.386 42.3452 150.156 41.2692 149.71C40.1933 149.264 39.2165 148.609 38.395 147.784L20.6056 129.864C19.772 129.049 19.1116 128.075 18.6639 127C18.2163 125.924 17.9905 124.77 18.0003 123.605C18.0206 121.285 18.9567 119.065 20.6056 117.429L38.5578 99.5079C40.2466 97.8982 42.4918 97 44.8268 97C47.1618 97 49.4071 97.8982 51.0959 99.5079L68.8853 117.429C69.7124 118.248 70.3688 119.223 70.8168 120.297C71.2647 121.371 71.4953 122.523 71.4953 123.687C71.4953 124.85 71.2647 126.002 70.8168 127.076C70.3688 128.15 69.7124 129.125 68.8853 129.945L50.933 147.866C49.2605 149.502 47.0056 150.408 44.664 150.385ZM44.664 99.3453C43.8296 99.3372 43.0023 99.4987 42.2324 99.8201C41.4626 100.141 40.7663 100.616 40.1861 101.215L22.1932 119.135C21.0197 120.328 20.3623 121.934 20.3623 123.605C20.3623 125.277 21.0197 126.883 22.1932 128.076L40.1861 145.874C41.3911 147.027 42.9953 147.67 44.664 147.67C46.3327 147.67 47.937 147.027 49.1419 145.874L67.0941 127.954C67.6849 127.368 68.1538 126.672 68.4737 125.905C68.7937 125.137 68.9585 124.315 68.9585 123.484C68.9585 122.653 68.7937 121.83 68.4737 121.063C68.1538 120.295 67.6849 119.599 67.0941 119.014L49.1012 101.174C48.5195 100.591 47.8279 100.13 47.0662 99.8158C46.3045 99.5019 45.488 99.342 44.664 99.3453V99.3453Z" fill="#6CEEC7"/>
</g>
</g>
<defs>
<clipPath id="clip0_24_243">
<rect width="138" height="194" fill="white"/>
</clipPath>
</defs>
</svg>

<svg width="138" height="194" fill="none" xmlns="http://www.w3.org/2000/svg"><g clip-path="url(#a)"><path opacity=".6" d="M56.337 5.887 8.928 53.213c-7.837 7.824-7.837 20.508 0 28.332l47.41 47.326c7.837 7.824 20.544 7.824 28.381 0l47.409-47.326c7.837-7.823 7.837-20.508 0-28.332L84.719 5.887c-7.837-7.824-20.544-7.824-28.382 0Z" fill="#6CEEC7"/><g opacity=".9"><path opacity=".8" d="M44.664 150.385a8.847 8.847 0 0 1-6.269-2.601l-17.79-17.92A8.664 8.664 0 0 1 18 123.605a8.81 8.81 0 0 1 2.606-6.176l17.952-17.921a9.086 9.086 0 0 1 12.538 0l17.79 17.921a8.809 8.809 0 0 1 0 12.516l-17.953 17.921a8.841 8.841 0 0 1-6.269 2.519Zm0-51.04a6.157 6.157 0 0 0-4.478 1.87l-17.993 17.92a6.376 6.376 0 0 0 0 8.941l17.993 17.798a6.476 6.476 0 0 0 8.956 0l17.952-17.92a6.304 6.304 0 0 0 1.865-4.47 6.288 6.288 0 0 0-1.865-4.47l-17.993-17.84a6.229 6.229 0 0 0-4.437-1.829Z" fill="#6CEEC7"/></g></g><defs><clipPath id="a"><path fill="#fff" d="M0 0h138v194H0z"/></clipPath></defs></svg>
